icons/svg/skull.svg

<svg width="24" height="24" viewBox="0 0 24 24" fill="none" xmlns="http://www.w3.org/2000/svg">
<path d="M17.99 17.284C20.2154 15.7562 21.25 13.8418 21.25 11.12C21.25 6.49956 17.1086 2.75 12 2.75C6.89137 2.75 2.75 6.49956 2.75 11.12C2.75 13.8419 4.1872 15.7562 6.4127 17.284C6.23753 17.8945 6.28149 19.5351 6.6 20.0641C7.01371 20.7512 7.81882 21.25 8.46979 21.25C9.21307 21.25 9.86556 20.7765 10.235 20.0636C10.6045 20.7765 11.257 21.25 12.0003 21.25C12.7434 21.25 13.3958 20.7767 13.7653 20.0641C14.1349 20.7767 14.7872 21.25 15.5303 21.25C16.1813 21.25 16.9837 20.7512 17.47 20.0641C17.8444 19.5351 17.99 17.8944 17.99 17.284Z" stroke="currentColor" stroke-width="1.5" stroke-linecap="round" stroke-linejoin="round"/>
<path d="M5.75 10.25C5.75 8.86929 6.86929 7.75 8.25 7.75C9.63071 7.75 10.75 8.86929 10.75 10.25V11.25C10.75 12.0784 10.0784 12.75 9.25 12.75H8.25C6.86929 12.75 5.75 11.6307 5.75 10.25Z" fill="currentColor"/>
<path d="M13.25 10.25C13.25 8.86929 14.3693 7.75 15.75 7.75C17.1307 7.75 18.25 8.86929 18.25 10.25C18.25 11.6307 17.1307 12.75 15.75 12.75H14.75C13.9216 12.75 13.25 12.0784 13.25 11.25V10.25Z" fill="currentColor"/>
<path d="M11.4771 13.1797L10.253 15.3558C10.028 15.7558 10.317 16.25 10.7759 16.25H13.2241C13.683 16.25 13.972 15.7558 13.747 15.3558L12.5229 13.1797C12.2936 12.7719 11.7064 12.7719 11.4771 13.1797Z" fill="currentColor"/>
</svg>

<svg xmlns="http://www.w3.org/2000/svg" width="24" height="24" fill="none" viewBox="0 0 24 24"><path stroke="currentColor" stroke-linecap="round" stroke-linejoin="round" stroke-width="1.5" d="M17.99 17.284c2.225-1.528 3.26-3.442 3.26-6.164 0-4.62-4.141-8.37-9.25-8.37S2.75 6.5 2.75 11.12c0 2.722 1.437 4.636 3.663 6.164-.175.61-.132 2.251.187 2.78.414.687 1.219 1.186 1.87 1.186.743 0 1.396-.474 1.765-1.186.37.712 1.022 1.186 1.765 1.186s1.396-.473 1.765-1.186c.37.713 1.022 1.186 1.765 1.186.651 0 1.454-.499 1.94-1.186.374-.529.52-2.17.52-2.78"/><path fill="currentColor" d="M5.75 10.25a2.5 2.5 0 0 1 5 0v1a1.5 1.5 0 0 1-1.5 1.5h-1a2.5 2.5 0 0 1-2.5-2.5m7.5 0a2.5 2.5 0 1 1 2.5 2.5h-1a1.5 1.5 0 0 1-1.5-1.5zm-1.773 2.93-1.224 2.176a.6.6 0 0 0 .523.894h2.448a.6.6 0 0 0 .523-.894l-1.224-2.176a.6.6 0 0 0-1.046 0"/></svg>
